images/tags-icons/mustache-icon.svg

<svg width="45" height="12" viewBox="0 0 45 12" fill="none" xmlns="http://www.w3.org/2000/svg">
<path d="M22.49 7.66533C23.4533 9.00676 24.76 10.1044 26.2927 10.8594C27.8253 11.6143 29.5357 12.003 31.27 11.9904C38.43 12.2508 45 7.13516 45 5.2191C42.22 7.53511 37.61 7.74904 35.05 6.79101C31.27 5.39582 31.93 2.61475 29.17 0.801C28.329 0.279504 27.3408 0.00122301 26.33 0.00122301C25.3192 0.00122301 24.331 0.279504 23.49 0.801C23.121 1.00811 22.7844 1.26164 22.49 1.5544C22.1934 1.26379 21.8572 1.0105 21.49 0.801C20.6474 0.278702 19.6575 0 18.645 0C17.6325 0 16.6426 0.278702 15.8 0.801C13.05 2.66125 13.71 5.38652 9.93 6.79101C7.37 7.72114 2.76 7.53511 0 5.2191C0 7.13516 6.55 12.2508 13.71 11.9904C15.4443 12.003 17.1547 11.6143 18.6873 10.8594C20.22 10.1044 21.5267 9.00676 22.49 7.66533Z" fill="#826550"/>
</svg>

<svg width="45" height="12" fill="none" xmlns="http://www.w3.org/2000/svg"><path d="M22.49 7.67a10.24 10.24 0 0 0 3.8 3.19 11.1 11.1 0 0 0 4.98 1.13C38.43 12.25 45 7.14 45 5.22c-2.78 2.32-7.39 2.53-9.95 1.57-3.78-1.4-3.12-4.18-5.88-5.99a5.4 5.4 0 0 0-5.68 0c-.37.2-.7.46-1 .75a4.9 4.9 0 0 0-1-.75 5.4 5.4 0 0 0-5.69 0c-2.75 1.86-2.09 4.59-5.87 6-2.56.92-7.17.74-9.93-1.58 0 1.92 6.55 7.03 13.71 6.77a11.1 11.1 0 0 0 4.98-1.13 10.24 10.24 0 0 0 3.8-3.2Z" fill="#826550"/></svg>
